X:1
T:Evil Hearted Man
M:6/8
L:1/4
K:E
 E E/2| G G/2 A G/2| B E/2- E3/2| G G/2 A G/2| B3/2- B E/2| G G/2 A G/2|\
 B B/2 c B/2| =d- d/2 B- A/2| G E/2 F E/2| =G3| E3-| E/2 z e c/2| B3/2 A3/2|\
 G/2- E- E3/2| z z/2B/2-c/2 B/2| =d3/2 c3/2| B/2 E- E3/2| G G/2 A ^A/2|\
 B- A/2 =G3/2| E3| z3/2||
